X: 305677
M: 6/8
L: 1/8
K: E	% and D
g2f ede | a2g fef | b2a gfe | afe dcB |\
g2f ede | a2g fga | {ga}b2g {ga}b2g | fef e2 H|]
d/e/ |\
f2f agf | b3 gfe | {ga}b2g {ga}b2g | b2a gfe |\
f2f agf | b2a gfe | b2a gfe | fed "^D.C."e2 |]
K: D
M: C|


